clock-star-four-points.svg

<svg fill="currentColor" viewBox="0 0 24 24"><path d="M14.4 15.1c-.9 1.1-1.4 2.4-1.4 3.9 0 1 .3 2 .7 2.8-.5.1-1.1.2-1.7.2-5.5 0-10-4.5-10-10S6.5 2 12 2s10 4.5 10 10c0 .5-.08.97-.16 1.5l-.04.2C21 13.3 20 13 19 13c-1.3 0-2.4.4-3.4 1.1l-3.1-1.9V7H11v6zm3.34 2.65L19 15l1.25 2.75L23 19l-2.75 1.26L19 23l-1.26-2.74L15 19z"/></svg>

<svg  viewBox="0 0 24 24" fill="currentColor"><path  d="M14.4 15.1C13.5 16.2 13 17.5 13 19C13 20 13.3 21 13.7 21.8C13.2 21.9 12.6 22 12 22C6.5 22 2 17.5 2 12C2 6.5 6.5 2 12 2C17.5 2 22 6.5 22 12C22 12.5 21.92 12.97 21.84 13.5L21.8 13.7C21 13.3 20 13 19 13C17.7 13 16.6 13.4 15.6 14.1L12.5 12.2V7H11V13L14.4 15.1M17.74 17.75L19 15L20.25 17.75L23 19L20.25 20.26L19 23L17.74 20.26L15 19L17.74 17.75Z"/></svg>
